X:1
T:Missa super Adieu mes amours
T:Missa super Adieu mes amours
T:Adam Reiner
C:Adam Reiner
%%score [ 1 2 3 4 ]
L:1/8
Q:1/4=120
M:2/2
K:F
V:1 treble nm="Soprano" snm="S"
V:2 treble nm="Alto" snm="A"
V:3 treble-8 nm="Tenor" snm="T"
V:4 bass nm="Bass" snm="B"
V:1
"^Source: Opus X Missarum---Wittemberg---G.Rhau---1541.\nEditor: André Vierendeels (13/09/95)" G4 B4 | %1
w: Ky- *|
 A4 G4 | d8 | c4 B4 | A2 A4 GF | G4 F4 | z2 c4 BA | B2 G4 c2- | cBAG F3 G | A2 G4 F2 | G4 z2 G2 | %11
w: ri- *|e,|[Ky- *|* ri- * *|* e,|Ky- * *|||* * ri-|e,] Ky-|
 B6 AG | A4 G4 | d4 z2 c2- | c2 BA B2 G2- | G2 A4 F2 | G2 c3"^-natural" BAG | F2 G4 F2 | G8 || z8 | %20
w: ri- * *|ri- *|e, [Ky-||* * ri-|e- _ _ _ ]|e- le- y-|son.||
 z8 | G8 | d4 d4- | d2 c"^-natural"B c4 | d8 | c6 B2 | G4 A4 | G8 | z8 | z8 | G4 B4 | A4 G4 | d8 | %33
w: |Chri-|* ste|_ _ _ _|||||||[Chri- *|||
 c6 B2 | A4 G4 | F8 | z4 G4- | G2 B6 | A6 G2- | G4 d4- | d2 c4 B2 | A2 GF G4 | F8- | F8 || %44
w: ||ste,|Chri-|* ste|_ ste|] e-||* le- * y-|son.|_|
[M:3/2] G8 G4 | D2 G4 FE F4 | G4 z4 G3 A | B2 A2 G2 d4 c2 | d2 B2 A4 c3 B | A2 G3 F F4 E2 | %50
w: Ky- ri-||e, [Ky- *|||* * * * ri-|
[M:2/2] F4 z4 | G4 B4 | A4 G4 | d8 | c4 B4- | B2 AG F3 G | AB c2 A2 B2- | BA G4 F2 |[M:3/2] G8 z4 | %59
w: e],|Ky- *|ri- *|e,|[Ky- *|||* * * ri-|e,|
 G4 B4 A4 | G4 d8 | c6 B2 G4 | A4 G4 B4 | A2 G4"^#" FE F4 | G12 |] %65
w: Ky- * ri-|* e],|e- * *||* le- * * y-|son|
V:2
 z4 D4 | F4 E4 | D2 G4 FE | F4 G4 | F6 D2- | DC/"^-natural"B,/ C2 D2 F2- | F2 ED E2 F2 | %7
w: Ky-|||||||
 G2 D2 E2 F2 | G2 C2 D4 | E4 D4 | z2 D2 E2 D2 | G4"^b" F3 E/D/ | C2 D2 E4 | F6 ED | E2 F2 G4 | %15
w: |* * ri-|* e,|[Ky- * *||||* * ri-|
 E2 F3 E D2- | D2 CB, C4 | D8- | D8 || z8 | z8 | G6"^-natural" FE | F4 G4 | E8 | D4 z2 D2 | %25
w: e] e- * *|* le- * y-|son.|_|||Chri- * *|||ste, Chri-|
 F2 ED E2 D2 | z2 G4 F2 | G2 E3 D/C/ D2 | z2 D4 C2 | D2 B,4 A,2 | G,4 F,2 F2- | F2 ED E2 D2 | %32
w: * * * * ste,|Chri- *|* * * * ste,|Chri- *||||
 B,3 C DE F2- | F2 ED E4 | F2 D4 C2 | D4 z4 | D4 D2 E2- | E2 D2 G4 | E2 F4 B,2 | C4 B,4- | %40
w: |||ste,|Chri- ste, Chri-||||
 B,2 A,G, A,2 B,2 | C2 D4"^#" C2 | D8- | D8 ||[M:3/2] D12- | D8 D4 | G,3 A, B,C D4 C2 | D4 z4 z4 | %48
w: * * * * ste],|e- le- y-|son.|_|Ky-||* * * * * ri-|e,-|
 D2 F4 F2 E4 | F2 D4 C2 C4 |[M:2/2] A,3 B, A,2 D2- | D2 C2 D4 | F4 E4 | D4 z2 G2- | G2 F2 G4- | %55
w: ||||* ri-|e, [Ky-||
 G4 A3 G | F2 E2 FEDC | B,2 C2 D4 |[M:3/2] D6 E2 F4 | E2 D2 G4 F4 | G8 F4 | F6 D2 E4 | F4 E4 D4 | %63
w: ||||||ri- * e]|e- * *|
 E4 D8 | D12 |] %65
w: le- y|son.|
V:3
 z8 | z8 | G4 B4 | A4 G4 | d8 | z2 G2 A3 B | c4 z2 c2 | d2 B4 A2 | G2 c4 B2 | c4 A4 | G6 B2 | %11
w: ||Ky- *|ri- *|e,|[Ky- * ri-|e, Ky-||||* ri-|
 Bcde d4 | z4 z2 G2 | A2 B2 c4 | z2 c2 d2 B2- | B2 c2 d4 | G8 | A8 | G8 || G8 | d4 d4- | d2 cB c4 | %22
w: e _ _ _ _|Ky-|* ri- e,|Ky- ri- e,]|_ e- *|le-|y-|son.|Chri-|ste _|_ _ _ _|
 d4 G4 | A8 | z2 F4 G2 | A3 B c2 d2 | _e4 d4 | z2 G2 B4 | A4 G4 | d8 | c4 d4 | c6 B2 | G4 B4 | %33
w: * [Chri-|ste,|Chri- *||* ste,|Chri- *||||||
 A4 G4 | z2 F2 G3 A | B4 A4 | G4 z4 | G4 d4 | c4 A2 d2 | e4 d4 | z4 z2 G2 | A2 B2 G3 A | %42
w: ste _|Chri- * *||ste|Chri- *||* ste],|e-|le- * * *|
 B2 F2 A2 B2 | A8 ||[M:3/2] G8 B4- | B4 A8 | B6 A2 G4 | F4 z2 f3 e/d/ e2 | d8 c4- | c2 B2 A4 G4 | %50
w: * * * y-|son.|Ky- *||* * ri-|e, [Ky- * * *||* * * ri-|
[M:2/2] F8 | z8 | z8 | G4 B4 | A4 G4 | d8 | c6 B2 | G4 A4 |[M:3/2] G4 B4 A4 | G4 d8 | G8 z4 | %61
w: e,|||Ky- *|ri- *|e,|Ky- ri-|e ,|Ky- * *|* ri-|e,|
 A8 B4 | c8 B4 | c4 A8 |"^square brackets indicate\n             ligatures" G12 |] %65
w: e- *||le- y-|son|
V:4
 z8 | z8 | z8 | z8 | D,4 F,4 | E,4 D,4 | A,8 | G,6 F,2 | E,4 D,4 | C,4 D,4 | G,,8 | z4 D,4 | %12
w: ||||Ky- *|ri- *|e,|[Ky- *||ri- *|e,|Ky-|
 F,4 E,4 | D,4 A,4- | A,4 G,4- | G,2 F,2 D,4 | E,8 | D,8 | G,,8 || G,6 F,E, | F,4 G,4 | E,8 | %22
w: ri- *|* e,|_ _|] e- le-|y-||son.|Chri- * *|||
 D,4 z4 | z4 A,,4 | B,,8 | A,,6 B,,2 | C,4 z4 | C,3 B,,/A,,/ G,,2 G,2- | G,2 F,2 G,2 E,2 | %29
w: ste,|[Chri-|||ste,|Chri- * * * *||
 D,2 G,4 F,2 | E,4 D,4 | F,4 z2 G,2- | G,2 F,E, D,2 B,,2 | F,4 C,4 | D,4 _E,4 | D,8 | G,,6 C,2- | %37
w: |* ste|_ Chri-||||||
 C,2 B,,2 G,,2 G,2 | A,2 F,4 G,2 | C,4 G,,A,,B,,C, | D,E, F,4 G,2 | F,2 E,D, E,4 | D,8- | D,8 || %44
w: |||* * * ste]|e- le- * y-|||
[M:3/2] G,12 | D,12 | G,6 F,2 E,4 | D,2 F,2 E,2 D,2 A,4 | z2 D,3 E,F,G, A,3 G, | %49
w: Ky-|||* * * ri- e,|Ky- * * * * *|
 F,2 G,2 D,2 F,2 C,4 |[M:2/2] D,4 F,4 | E,4 D,2 G,2 | D,2 F,2 C,4 | z8 | z4 z2 G,2- | %55
w: * * * * ri-|e ,|Ky- * *|* ri- e,||Ky-|
 G,2 F,E, D,3 E, | F,G, A,2 F,2 G,2- | G,F, E,2 D,4"^#" | %58
w: |||
[M:3/2] G,,4 G,4 F,4"^Notes: original keys: Sol, Ut 3rd,\n                      Ut 4rth, Fa 4rth\n           note values have been halved\n           editorial accidntals above the\n                        staff.""^dotted brackets indicate \n              black notes\n" | %59
w: |
 G,8 D,4 | G,6 F,2 D,2 E,2 | F,8 G,4 | F,4 C,4 G,,4 | C,4 D,8 | G,,12 |] %65
w: ||ri- e]|e- * *|le- y-|son.|

